X: 74
T:Cowboy Jig, The
M:6/8
L:1/8
R:Jig
K:A
"A"AEF A2 B|"A7"cag aec|"D"Bcd c2 B|"E"c3 BGE|!
"A"AEF A2 B|"A7"cag aec|"D"Bcd "Bm" c2B|"E"cAG "A"A3:|!
|:"D"f2f f3|fag fec|"A"e3 e2e|eaf ecA|!
"Bm"d2e f2e|fac B2f|"A"ecA "E"c2B|1"A"cAA Ace:|2"A"cAA A2B:||!
